X: 29112
T: Nell Sullivan's
R: jig
M: 6/8
K: Gmajor
|:g|edB AGA|BGe dBd|d2 B AGA|BAA A2 g|
edB AGA|Bge dBd|d2 B AGA|1 BGG G2:|2 BGF G2||
|:D|GBd e2 g|edB dBA|B2 A G2 A|BAA A2 D|
GBd e2 g|edB dBA|G2 B AGA|1 BGF G2:|2 BGG G2||

